packages/components/src/telekom/icons/weather/moon-thunder-rain/default.svg

<?xml version="1.0" encoding="UTF-8"?>
<svg width="24px" height="24px" viewBox="0 0 24 24" version="1.1" xmlns="http://www.w3.org/2000/svg" xmlns:xlink="http://www.w3.org/1999/xlink">
    <title>icon/weather/moon-thunder-rain/default</title>
    <g id="icon/weather/moon-thunder-rain/default" stroke="none" stroke-width="1" fill="none" fill-rule="evenodd">
        <path d="M10.598,19.1712 C10.68235,19.09385 10.8104938,19.1472687 10.8275453,19.2483859 L10.8276,19.2944 L10.3584,22.2932 C10.256,22.9488 9.6416,23.3968 8.986,23.2944 C8.03265,23.1452833 7.64981181,22.0031896 8.27297671,21.3094295 L8.36,21.2216 L10.598,19.1712 Z M8.8096,15.2 L6.2476,18.8 L8.7348,18.8 L3.688,22.878 C3.56056,22.98096 3.392944,22.84902 3.4350532,22.7116692 L3.4572,22.666 L5.2628,20 L3.3508,20 L6.012,15.2 L8.8096,15.2 Z M12.8752,13.8152 C12.9468571,13.7500571 13.0546612,13.7930612 13.0729166,13.8767044 L13.074,13.9216 L12.5524,17.2552 C12.448525,17.9212 11.8566813,18.3896219 11.1980846,18.3539471 L11.0656,18.34 L10.9395536,18.3142819 C9.99849695,18.0757367 9.64535649,16.9056368 10.2968861,16.1859978 L10.3876,16.0948 L12.8752,13.8152 Z M10.0996,5.9812 C12.4528,5.9812 14.528,7.4328 15.342,9.62 C16.722,10.3504 17.6,11.792 17.6,13.3636 C17.6,15.5852 15.8804,17.4088 13.7032,17.5824 L13.7384,17.4408 L13.9092,16.348 C15.3236,16.09 16.4,14.8512 16.4,13.3636 C16.4,12.2400889 15.772763,11.2089864 14.7865158,10.6837529 L14.6088,10.5964 L14.366,10.4868 L14.2844,10.2328 C13.6988,8.4072 12.0168,7.1808 10.0992,7.1808 C9.09415385,7.1808 8.12455385,7.5264 7.34235703,8.159397 L7.1508,8.3236 L6.8888,8.5616 L6.554,8.4472 C6.3108,8.3644 6.0628,8.3224 5.8156,8.3224 C4.61001667,8.3224 3.61970694,9.26247708 3.53927416,10.4480279 L3.534,10.604 L3.558,11.1208 L3.1852,11.2872 C2.2224,11.7176 1.6,12.6752 1.6,13.7272 C1.6,15.0458667 2.55991458,16.1441167 3.81788148,16.3604398 L3.9836,16.3836 L3.3704,17.4896 C1.6696,17.0812 0.4,15.5516 0.4,13.7272 C0.4,12.3356 1.1504,11.0584 2.342,10.372 C2.462,8.56 3.9744,7.1228 5.816,7.1228 C6.08,7.1228 6.344,7.1536 6.6036,7.2144 C7.5964,6.4168 8.8252,5.9812 10.0996,5.9812 Z M18.1764,0.5052 C19.066,0.2716 19.9616,0.2756 20.7976,0.4748 C18.8728,1.4004 17.8092,3.586 18.372,5.7288 C19.004,8.1352 21.448,9.58 23.8548,8.99 C23.1496,9.9236 22.1408,10.6384 20.9212,10.9588 C20.0092,11.1984 19.0908,11.1888 18.2364,10.974 C17.8052,10.0952 17.146,9.3336 16.298,8.79 C15.8132,7.7024 15.0724,6.792 14.1612,6.114 C13.9784,3.5704 15.62,1.1764 18.1764,0.5052 Z" id="Shape" fill="#262626" fill-rule="nonzero"></path>
    </g>
</svg>

<svg width="24" height="24" xmlns="http://www.w3.org/2000/svg"><path d="M10.598 19.171a.138.138 0 01.23.077v.046l-.47 3a1.201 1.201 0 01-1.372 1c-.953-.149-1.336-1.29-.713-1.985l.087-.087 2.238-2.05zM8.81 15.2l-2.562 3.6h2.487l-5.047 4.078c-.127.103-.295-.029-.253-.166l.022-.046L5.263 20H3.35l2.661-4.8H8.81zm4.065-1.385a.12.12 0 01.198.062l.001.045-.522 3.333a1.301 1.301 0 01-1.354 1.099l-.132-.014-.126-.026c-.942-.238-1.295-1.408-.643-2.128l.09-.091 2.488-2.28zM10.1 5.981a5.577 5.577 0 015.242 3.639 4.245 4.245 0 012.258 3.744 4.239 4.239 0 01-3.897 4.218l.035-.141.171-1.093a3.04 3.04 0 002.491-2.984 3.044 3.044 0 00-1.613-2.68l-.178-.088-.243-.11-.082-.253A4.381 4.381 0 0010.1 7.18a4.377 4.377 0 00-2.757.978l-.191.165-.262.238-.335-.115a2.286 2.286 0 00-.738-.125c-1.206 0-2.196.94-2.277 2.126l-.005.156.024.517-.373.166a2.677 2.677 0 00-1.585 2.44c0 1.319.96 2.417 2.218 2.633l.166.024-.614 1.106A3.877 3.877 0 01.4 13.727c0-1.391.75-2.669 1.942-3.355a3.486 3.486 0 014.262-3.158A5.574 5.574 0 0110.1 5.981zM18.176.505a5.38 5.38 0 012.622-.03 4.548 4.548 0 003.057 8.515 5.376 5.376 0 01-2.934 1.969c-.912.24-1.83.23-2.685.015a5.42 5.42 0 00-1.938-2.184 6.748 6.748 0 00-2.137-2.676A5.403 5.403 0 0118.176.505z" fill="#000" fill-rule="evenodd"/></svg>
